symbols/web/no_photography/materialsymbolssharp/no_photography_wght200fill1_24px.svg

<svg xmlns="http://www.w3.org/2000/svg" height="24" width="24"><path d="M21.1 22.525 18.575 20H3V6h2.975v1.375L1.875 3.3l.725-.7 19.225 19.225Zm-.1-4.35L15.7 12.9q0-.75-.287-1.4-.288-.65-.763-1.15-.5-.5-1.15-.775-.65-.275-1.375-.275l-3.95-3.95L9.425 4h5.15l1.85 2H21Zm-9-1.45q.7 0 1.312-.237.613-.238 1.088-.663L9.175 10.6q-.425.475-.663 1.088-.237.612-.237 1.312 0 1.575 1.075 2.65T12 16.725Z"/></svg>

<svg xmlns="http://www.w3.org/2000/svg" height="24" width="24"><path d="M21.1 22.525 18.575 20H3V5.95H4.55L1.875 3.3L2.6 2.6L21.825 21.825ZM21 18.175 15.7 12.9Q15.7 12.85 15.7 12.812Q15.7 12.775 15.7 12.75Q15.625 11.325 14.65 10.35Q13.675 9.375 12.25 9.3Q12.225 9.3 12.188 9.3Q12.15 9.3 12.125 9.3L8.175 5.35L9.425 4H14.575L16.425 6H21ZM12 16.725Q12.7 16.725 13.312 16.488Q13.925 16.25 14.4 15.825L9.175 10.6Q8.75 11.075 8.512 11.688Q8.275 12.3 8.275 13Q8.275 14.575 9.35 15.65Q10.425 16.725 12 16.725Z"/></svg>
